svgs/light/kitchen-set.svg

<svg xmlns="http://www.w3.org/2000/svg" viewBox="0 0 576 512"><!--! Font Awesome Pro 6.5.1 by @fontawesome - https://fontawesome.com License - https://fontawesome.com/license (Commercial License) Copyright 2023 Fonticons, Inc. --><path d="M144 256a112 112 0 1 0 0-224 112 112 0 1 0 0 224zm143.1-96c-8 72-69 128-143.1 128C64.5 288 0 223.5 0 144S64.5 0 144 0c74.1 0 135.2 56 143.1 128h67.6c6.6-18.6 24.4-32 45.3-32h96c26.5 0 48 21.5 48 48s-21.5 48-48 48H400c-20.9 0-38.7-13.4-45.3-32H287.1zM272 320h16 32V288c0-17.7 14.3-32 32-32h96c17.7 0 32 14.3 32 32v32h32 16c8.8 0 16 7.2 16 16s-7.2 16-16 16H512V464c0 26.5-21.5 48-48 48H336c-26.5 0-48-21.5-48-48V352H272c-8.8 0-16-7.2-16-16s7.2-16 16-16zm80 0h96V288H352v32zm-32 32V464c0 8.8 7.2 16 16 16H464c8.8 0 16-7.2 16-16V352H320zM496 128H400c-8.8 0-16 7.2-16 16s7.2 16 16 16h96c8.8 0 16-7.2 16-16s-7.2-16-16-16zM192 144a48 48 0 1 0 -96 0 48 48 0 1 0 96 0zM64 144a80 80 0 1 1 160 0A80 80 0 1 1 64 144zM0 496c0-8.8 7.2-16 16-16H208c8.8 0 16 7.2 16 16s-7.2 16-16 16H16c-8.8 0-16-7.2-16-16zM160 352v32h16c8.8 0 16-7.2 16-16s-7.2-16-16-16H160zm0-32h16c26.5 0 48 21.5 48 48s-21.5 48-48 48H160c0 17.7-14.3 32-32 32H64c-17.7 0-32-14.3-32-32V336c0-8.8 7.2-16 16-16h80 16 16zm-32 64V352H64v64h64V384z"/></svg>

<svg xmlns="http://www.w3.org/2000/svg" viewBox="0 0 576 512"><!--! Font Awesome Pro 6.1.1 by @fontawesome - https://fontawesome.com License - https://fontawesome.com/license (Commercial License) Copyright 2022 Fonticons, Inc. --><path d="M224 144C224 188.2 188.2 224 144 224C99.82 224 64 188.2 64 144C64 99.82 99.82 64 144 64C188.2 64 224 99.82 224 144zM144 96C117.5 96 96 117.5 96 144C96 170.5 117.5 192 144 192C170.5 192 192 170.5 192 144C192 117.5 170.5 96 144 96zM287.1 160C279.2 231.1 218.1 288 144 288C64.47 288 0 223.5 0 144C0 64.47 64.47 0 144 0C218.1 0 279.2 56 287.1 128H354.7C361.3 109.4 379.1 96 400 96H496C522.5 96 544 117.5 544 144C544 170.5 522.5 192 496 192H400C379.1 192 361.3 178.6 354.7 160H287.1zM144 256C205.9 256 256 205.9 256 144C256 82.14 205.9 32 144 32C82.14 32 32 82.14 32 144C32 205.9 82.14 256 144 256zM496 128H400C391.2 128 384 135.2 384 144C384 152.8 391.2 160 400 160H496C504.8 160 512 152.8 512 144C512 135.2 504.8 128 496 128zM320 320V288C320 270.3 334.3 256 352 256H448C465.7 256 480 270.3 480 288V320H528C536.8 320 544 327.2 544 336C544 344.8 536.8 352 528 352H512V464C512 490.5 490.5 512 464 512H336C309.5 512 288 490.5 288 464V352H272C263.2 352 256 344.8 256 336C256 327.2 263.2 320 272 320H320zM352 320H448V288H352V320zM320 352V464C320 472.8 327.2 480 336 480H464C472.8 480 480 472.8 480 464V352H320zM0 496C0 487.2 7.164 480 16 480H208C216.8 480 224 487.2 224 496C224 504.8 216.8 512 208 512H16C7.164 512 0 504.8 0 496zM176 320C202.5 320 224 341.5 224 368C224 394.5 202.5 416 176 416H160C160 433.7 145.7 448 128 448H64C46.33 448 32 433.7 32 416V336C32 327.2 39.16 320 48 320H176zM160 384H176C184.8 384 192 376.8 192 368C192 359.2 184.8 352 176 352H160V384zM128 352H64V416H128V352z"/></svg>
